public/assets/img/icons/where05.svg

<svg width="80" height="80" viewBox="0 0 80 80" fill="none" xmlns="http://www.w3.org/2000/svg">
<path d="M47.7426 64.1749H41.6802C40.8174 64.1749 40.1179 64.8743 40.1179 65.7372C40.1179 66.6002 40.8174 67.2996 41.6802 67.2996H47.7426C48.6782 67.2996 49.4394 68.0607 49.4394 68.9963C49.4394 69.9319 48.6783 70.693 47.7426 70.693H31.4232C28.9701 70.693 26.6632 69.6114 25.0945 67.7255L21.1918 63.0346C19.0978 60.5174 16.0501 59.0432 12.7892 58.9499V49.7207H18.5417C21.3786 49.7207 24.0646 50.8057 26.1054 52.7757L34.5285 60.9061C35.124 61.481 35.1518 62.4435 34.5904 63.0516C34.0182 63.6713 33.047 63.7118 32.4253 63.1419L25.8123 57.0801C25.1765 56.4971 24.1881 56.5399 23.6051 57.176C23.022 57.8121 23.065 58.8004 23.701 59.3833L30.314 65.4452C31.2059 66.2627 32.3345 66.6664 33.4602 66.6664C34.7171 66.6664 35.9704 66.1632 36.8865 65.1708C38.5906 63.3247 38.5063 60.4032 36.6987 58.6582L28.2756 50.5277C25.6492 47.9924 22.1923 46.5962 18.5417 46.5962H12.4858C11.8979 45.2049 10.5194 44.226 8.91655 44.226H1.56234C0.69953 44.226 0 44.9254 0 45.7884V57.2129C0 58.0757 0.69953 58.7752 1.56234 58.7752C2.42515 58.7752 3.12468 58.0758 3.12468 57.2129V47.3505H8.9167C9.3292 47.3505 9.66467 47.6862 9.66467 48.0985V60.6208C9.66467 61.0332 9.3292 61.3688 8.9167 61.3688H7.29405C6.43124 61.3688 5.73171 62.0682 5.73171 62.9311C5.73171 63.7939 6.43124 64.4935 7.29405 64.4935H8.91655C10.5409 64.4935 11.9339 63.4879 12.5081 62.0668C14.9437 62.0807 17.2311 63.1593 18.7898 65.033L22.6925 69.7239C24.8568 72.3256 28.039 73.8177 31.4232 73.8177H47.7426C50.401 73.8177 52.564 71.6549 52.564 68.9963C52.564 66.3377 50.401 64.1749 47.7426 64.1749Z" fill="#333333"/>
<path d="M78.4372 20.6145C77.5744 20.6145 76.8749 21.3139 76.8749 22.1769V32.6495H71.0828C70.6703 32.6495 70.3349 32.3139 70.3349 31.9015V19.3792C70.3349 18.9669 70.6703 18.6313 71.0828 18.6313H72.5908C73.4536 18.6313 74.1531 17.9319 74.1531 17.0689C74.1531 16.2061 73.4536 15.5066 72.5908 15.5066H71.0828C69.4585 15.5066 68.0655 16.5122 67.4913 17.9333C65.0556 17.9194 62.7683 16.8408 61.2096 14.967L57.3069 10.2763C55.1427 7.67456 51.9604 6.18237 48.576 6.18237H32.2569C29.5985 6.18237 27.4355 8.34518 27.4355 11.0036C27.4355 13.662 29.5985 15.8249 32.2569 15.8249H38.9301C39.7929 15.8249 40.4924 15.1255 40.4924 14.2625C40.4924 13.3995 39.7929 12.7002 38.9301 12.7002H32.2569C31.3213 12.7002 30.5601 11.9391 30.5601 11.0035C30.5601 10.068 31.3212 9.30674 32.2569 9.30674H48.5761C51.0294 9.30674 53.3363 10.3883 54.905 12.2742L58.8077 16.965C60.9016 19.4822 63.9494 20.9564 67.2103 21.0498V30.279H61.4578C58.621 30.279 55.9349 29.194 53.8941 27.224L45.471 19.0936C44.8755 18.5188 44.8477 17.5564 45.4091 16.9481C45.9813 16.3283 46.9526 16.288 47.5743 16.8578L54.1874 22.9197C54.8235 23.5026 55.8114 23.4598 56.3947 22.8237C56.9777 22.1877 56.9347 21.1994 56.2986 20.6164L49.6855 14.5547C47.798 12.8245 44.8499 12.9478 43.113 14.8291C41.409 16.6753 41.4932 19.5969 43.3008 21.3417L51.724 29.4722C54.3504 32.0075 57.8072 33.4037 61.4578 33.4037H67.5138C68.1016 34.795 69.4802 35.7739 71.083 35.7739H78.4374C79.3002 35.7739 79.9997 35.0745 79.9997 34.2115V22.1766C79.9995 21.3139 79.3 20.6145 78.4372 20.6145Z" fill="#333333"/>
<path d="M50.4428 59.3191C50.0875 58.5328 49.164 58.1821 48.3784 58.5372C47.5872 58.8817 47.2253 59.8024 47.5698 60.5933C47.8258 61.1813 48.4001 61.5322 49.0029 61.5322C49.2112 61.5322 49.4228 61.4903 49.6259 61.4019C49.6325 61.3991 49.6531 61.3899 49.6595 61.3871C50.4459 61.0319 50.7979 60.1055 50.4428 59.3191Z" fill="#333333"/>
<path d="M54.3265 56.6888C53.8157 55.995 52.834 55.8506 52.1395 56.3591C51.4434 56.8688 51.2921 57.8464 51.8018 58.5425C52.1079 58.9605 52.5823 59.182 53.0635 59.182C53.3838 59.182 53.7071 59.0839 53.9852 58.8803C53.9877 58.8786 54.0024 58.8677 54.0048 58.8659C54.6968 58.3534 54.8371 57.3822 54.3265 56.6888Z" fill="#333333"/>
<path d="M46.077 61.0731C45.899 60.2317 45.0729 59.693 44.2307 59.867C43.3895 60.034 42.8395 60.8489 43.0007 61.6926C43.1438 62.4411 43.7987 62.9619 44.5335 62.9619C44.6307 62.9619 44.7296 62.9526 44.8285 62.9337C44.8387 62.9317 44.8643 62.9265 44.8746 62.9244C45.7184 62.7455 46.2556 61.917 46.077 61.0731Z" fill="#333333"/>
<path d="M57.5917 53.2906C56.951 52.7128 55.9634 52.7636 55.3852 53.4044C55.3776 53.4129 55.3596 53.4333 55.3521 53.4419C54.7884 54.0951 54.8612 55.0817 55.5145 55.6453C55.8096 55.9 56.1727 56.0247 56.5342 56.0247C56.9681 56.0247 57.3995 55.845 57.7079 55.4944C58.2832 54.8536 58.2315 53.8676 57.5917 53.2906ZM56.7192 54.6079L56.5454 54.4508L56.7335 54.6204L56.7192 54.6079Z" fill="#333333"/>
<path d="M61.5659 44.8238C60.7403 44.5733 59.8668 45.0444 59.6164 45.8702C59.3626 46.6949 59.8254 47.5691 60.6501 47.8229C60.8031 47.87 60.9578 47.8924 61.11 47.8924C61.7778 47.8924 62.3961 47.4608 62.6026 46.7891L62.6092 46.7677C62.8595 45.9419 62.3915 45.0741 61.5659 44.8238Z" fill="#333333"/>
<path d="M63.5678 36.7604C63.5643 36.7406 63.5606 36.7207 63.5563 36.7009C63.3799 35.8565 62.5524 35.3164 61.7084 35.4924C60.8673 35.6678 60.3265 36.4903 60.4959 37.3312C60.6392 38.0767 61.2924 38.5984 62.0281 38.5984C62.1195 38.5984 62.2123 38.5904 62.3052 38.5737C63.1546 38.4217 63.7198 37.6098 63.5678 36.7604Z" fill="#333333"/>
<path d="M62.1343 40.1503C61.2776 40.0747 60.5166 40.7098 60.4409 41.5692C60.4395 41.5843 60.4373 41.6151 60.4363 41.6303C60.3857 42.4917 61.0427 43.231 61.9041 43.2817C61.9354 43.2835 61.9663 43.2845 61.9973 43.2845C62.8107 43.2845 63.4943 42.6554 63.5541 41.8362C63.6254 40.98 62.9913 40.2259 62.1343 40.1503Z" fill="#333333"/>
<path d="M60.0385 49.2693C59.2885 48.8442 58.3345 49.1076 57.9092 49.8584L57.8874 49.8975C57.476 50.6559 57.7537 51.6111 58.512 52.0225C58.7506 52.1518 59.0073 52.2132 59.2603 52.2132C59.8117 52.2132 60.3443 51.9207 60.6264 51.4007L59.2682 50.6286L60.6274 51.3989C61.0529 50.6481 60.7893 49.6948 60.0385 49.2693Z" fill="#333333"/>
<path d="M31.7027 19.5157C31.3169 18.7438 30.378 18.4308 29.6068 18.8169L29.5929 18.8238C28.821 19.2097 28.5152 20.1446 28.9011 20.9163C29.1744 21.463 29.7282 21.7777 30.3022 21.7777C30.5388 21.7777 30.7788 21.7243 31.004 21.6118C31.7758 21.226 32.0885 20.2876 31.7027 19.5157Z" fill="#333333"/>
<path d="M36.2222 18.213C36.019 17.3747 35.1755 16.8594 34.3357 17.0629C34.3285 17.0646 34.3063 17.0702 34.2991 17.0721C33.4635 17.2874 32.9574 18.1401 33.1726 18.9755C33.3543 19.6805 33.9866 20.1491 34.6818 20.1491C34.8105 20.1491 34.9415 20.133 35.0721 20.0994C35.9105 19.8961 36.4255 19.0516 36.2222 18.213Z" fill="#333333"/>
<path d="M27.5714 21.7686C27.031 21.0972 26.0473 20.9918 25.3751 21.5308L26.3437 22.7566L25.3704 21.5344C24.6954 22.0719 24.584 23.0547 25.1214 23.7297C25.4301 24.1172 25.8853 24.319 26.3448 24.319C26.6857 24.319 27.0293 24.2077 27.317 23.9788L27.3376 23.9622C28.0079 23.4208 28.1117 22.44 27.5714 21.7686Z" fill="#333333"/>
<path d="M19.2412 32.8844C18.4087 32.6575 17.55 33.148 17.323 33.9805C17.319 33.9947 17.3115 34.0242 17.308 34.0386C17.1048 34.8769 17.6198 35.7198 18.458 35.9234C18.5817 35.9534 18.7055 35.9678 18.8273 35.9678C19.5283 35.9678 20.1651 35.4922 20.3426 34.7833C20.5569 33.957 20.0673 33.1097 19.2412 32.8844Z" fill="#333333"/>
<path d="M18.2453 37.4749C17.3817 37.4269 16.6451 38.083 16.5951 38.9443C16.5939 38.9644 16.5931 38.9844 16.5925 39.0044C16.5672 39.8664 17.2455 40.5847 18.1076 40.6105C18.1236 40.611 18.1392 40.6113 18.155 40.6113C18.9925 40.6113 19.6845 39.9468 19.7154 39.1055C19.7545 38.2525 19.1001 37.5246 18.2453 37.4749Z" fill="#333333"/>
<path d="M21.2074 28.6149C20.4432 28.214 19.499 28.5085 19.0982 29.2726L19.0728 29.3229C18.692 30.0968 19.0114 31.0315 19.7851 31.4126C20.0067 31.5218 20.2415 31.5734 20.4732 31.5734C21.047 31.5734 21.5993 31.2558 21.8731 30.709C22.2621 29.9476 21.9665 29.0132 21.2074 28.6149Z" fill="#333333"/>
<path d="M24.0286 24.8561C23.3647 24.305 22.3797 24.3964 21.8286 25.0602C21.8211 25.0694 21.8039 25.0906 21.7964 25.0999C21.2608 25.7759 21.3753 26.7569 22.0511 27.2928C22.338 27.5205 22.6802 27.6308 23.0202 27.6308C23.4785 27.6308 23.9328 27.4302 24.2414 27.0455C24.7827 26.3819 24.6889 25.4044 24.0286 24.8561Z" fill="#333333"/>
<path d="M20.0106 43.4418C19.8586 42.5925 19.0463 42.0273 18.1974 42.1795C17.348 42.3317 16.7828 43.1434 16.9349 43.9928L16.9377 44.0081C17.073 44.7632 17.7288 45.2878 18.4696 45.2878C18.5619 45.2878 18.6555 45.2796 18.7496 45.2628C19.5989 45.1107 20.1628 44.2912 20.0106 43.4418Z" fill="#333333"/>
<path d="M45.3638 31.5819C43.3302 31.5819 41.446 32.4205 40.1033 33.8357C38.7605 32.4205 36.8765 31.5819 34.8429 31.5819C30.8424 31.5819 27.5879 34.8364 27.5879 38.8369C27.5879 40.9955 28.5399 43.027 30.1996 44.4108C30.2096 44.4192 30.2199 44.4275 30.2302 44.4358L39.1335 51.4845C39.4176 51.7095 39.7604 51.8219 40.1032 51.8219C40.4476 51.8219 40.7919 51.7084 41.0766 51.4816L50.3571 44.0894C50.4025 44.0533 50.4458 44.0145 50.4869 43.9736C51.8617 42.6025 52.6188 40.7783 52.6188 38.8369C52.6188 34.8364 49.3643 31.5819 45.3638 31.5819ZM48.3369 41.7042L40.1005 48.2648L32.1865 41.9994C31.2496 41.2113 30.7126 40.0599 30.7126 38.8372C30.7124 36.5596 32.5654 34.7066 34.8429 34.7066C36.5196 34.7066 38.0179 35.708 38.6601 37.2577C38.9021 37.8413 39.4716 38.2219 40.1033 38.2219C40.7351 38.2219 41.3046 37.8414 41.5466 37.2577C42.1888 35.708 43.6871 34.7066 45.3638 34.7066C47.6413 34.7066 49.4942 36.5596 49.4942 38.837C49.4942 39.9155 49.0838 40.9305 48.3369 41.7042Z" fill="#333333"/>
<path d="M1.56273 64.4881C2.42257 64.4881 3.1196 63.7911 3.1196 62.9313C3.1196 62.0714 2.42257 61.3744 1.56273 61.3744C0.702895 61.3744 0.00585938 62.0714 0.00585938 62.9313C0.00585938 63.7911 0.702895 64.4881 1.56273 64.4881Z" fill="#333333"/>
<path d="M78.4377 18.6256C79.2976 18.6256 79.9946 17.9285 79.9946 17.0687C79.9946 16.2089 79.2976 15.5118 78.4377 15.5118C77.5779 15.5118 76.8809 16.2089 76.8809 17.0687C76.8809 17.9285 77.5779 18.6256 78.4377 18.6256Z" fill="#333333"/>
</svg>

<svg width="80" height="80" fill="none" xmlns="http://www.w3.org/2000/svg"><path d="M47.743 64.175H41.68a1.562 1.562 0 1 0 0 3.125h6.063c.935 0 1.696.76 1.696 1.696 0 .936-.76 1.697-1.696 1.697h-16.32a8.21 8.21 0 0 1-6.328-2.968l-3.903-4.69a11.32 11.32 0 0 0-8.403-4.085v-9.23h5.753c2.837 0 5.523 1.086 7.563 3.056l8.424 8.13c.595.575.623 1.538.061 2.146-.572.62-1.543.66-2.165.09l-6.613-6.062a1.562 1.562 0 1 0-2.111 2.303l6.613 6.062a4.642 4.642 0 0 0 3.146 1.221 4.65 4.65 0 0 0 3.426-1.495c1.705-1.846 1.62-4.768-.187-6.513l-8.423-8.13a13.947 13.947 0 0 0-9.734-3.932h-6.056a3.879 3.879 0 0 0-3.57-2.37H1.563c-.862 0-1.562.7-1.562 1.562v11.425a1.562 1.562 0 0 0 3.125 0V47.35h5.792c.412 0 .748.336.748.748v12.523a.749.749 0 0 1-.748.748H7.294a1.562 1.562 0 1 0 0 3.124h1.623a3.878 3.878 0 0 0 3.591-2.426 8.209 8.209 0 0 1 6.282 2.966l3.902 4.69a11.325 11.325 0 0 0 8.731 4.095h16.32a4.827 4.827 0 0 0 4.821-4.822 4.827 4.827 0 0 0-4.821-4.821zM78.437 20.614c-.863 0-1.562.7-1.562 1.563V32.65h-5.792a.749.749 0 0 1-.748-.748V19.378c0-.412.335-.748.748-.748h1.508a1.562 1.562 0 0 0 0-3.124h-1.508a3.878 3.878 0 0 0-3.592 2.426 8.208 8.208 0 0 1-6.281-2.966l-3.903-4.69a11.325 11.325 0 0 0-8.731-4.095h-16.32a4.827 4.827 0 0 0-4.82 4.822 4.827 4.827 0 0 0 4.82 4.82h6.674a1.562 1.562 0 0 0 0-3.124h-6.673a1.699 1.699 0 0 1-1.697-1.696c0-.936.761-1.697 1.697-1.697h16.32a8.21 8.21 0 0 1 6.328 2.967l3.903 4.691a11.32 11.32 0 0 0 8.402 4.085v9.229h-5.752a10.838 10.838 0 0 1-7.564-3.055l-8.423-8.13a1.544 1.544 0 0 1-.062-2.146 1.538 1.538 0 0 1 2.165-.09l6.613 6.062a1.562 1.562 0 0 0 2.112-2.304l-6.614-6.061a4.668 4.668 0 0 0-6.572.274c-1.704 1.846-1.62 4.768.188 6.513l8.423 8.13a13.947 13.947 0 0 0 9.734 3.932h6.056a3.879 3.879 0 0 0 3.569 2.37h7.354c.863 0 1.563-.7 1.563-1.563V22.178c0-.863-.7-1.563-1.563-1.563zM50.443 59.32a1.56 1.56 0 0 0-2.065-.783 1.562 1.562 0 1 0 1.248 2.865l.034-.015a1.565 1.565 0 0 0 .783-2.068zM54.327 56.689a1.569 1.569 0 0 0-2.188-.33 1.562 1.562 0 1 0 1.866 2.507 1.556 1.556 0 0 0 .322-2.177z" fill="#333"/><path d="M46.077 61.073a1.564 1.564 0 0 0-1.846-1.206 1.562 1.562 0 1 0 .644 3.057 1.56 1.56 0 0 0 1.202-1.85zM57.592 53.29a1.562 1.562 0 0 0-2.24.152 1.562 1.562 0 0 0 2.356 2.052 1.562 1.562 0 0 0-.116-2.203zm-.873 1.318-.174-.157.188.17-.014-.013zM61.566 44.824c-.826-.25-1.7.22-1.95 1.046a1.562 1.562 0 1 0 2.987.92l.006-.022a1.558 1.558 0 0 0-1.043-1.944zM63.568 36.76a1.563 1.563 0 1 0 0 0zM62.134 40.15a1.564 1.564 0 0 0-1.698 1.48 1.562 1.562 0 0 0 3.118.206 1.563 1.563 0 0 0-1.42-1.686zM60.038 49.27a1.562 1.562 0 0 0-2.129.588l-.022.04a1.569 1.569 0 0 0 1.373 2.315 1.55 1.55 0 0 0 1.366-.812l-1.358-.772 1.36.77a1.562 1.562 0 0 0-.59-2.13zM31.703 19.516a1.562 1.562 0 0 0-2.096-.7l-.014.008a1.555 1.555 0 0 0-.692 2.092 1.563 1.563 0 0 0 2.103.696 1.562 1.562 0 0 0 .699-2.096zM36.222 18.213a1.562 1.562 0 0 0-1.923-1.14 1.565 1.565 0 0 0-1.126 1.902 1.56 1.56 0 0 0 1.9 1.124 1.562 1.562 0 0 0 1.15-1.886zM27.571 21.769a1.564 1.564 0 0 0-2.196-.238l.969 1.226-.974-1.223a1.562 1.562 0 1 0 1.947 2.445l.02-.017a1.56 1.56 0 0 0 .234-2.193zM19.241 32.884a1.562 1.562 0 0 0-1.933 1.155 1.561 1.561 0 0 0 3.035.744 1.562 1.562 0 0 0-1.102-1.899zM18.245 37.475a1.563 1.563 0 0 0-1.652 1.53 1.561 1.561 0 0 0 3.122.1 1.562 1.562 0 0 0-1.47-1.63zM21.207 28.615a1.562 1.562 0 0 0-2.109.658l-.025.05a1.561 1.561 0 0 0 1.4 2.25c.574 0 1.126-.317 1.4-.864a1.562 1.562 0 0 0-.666-2.094zM24.029 24.856a1.562 1.562 0 0 0-2.233.244 1.56 1.56 0 0 0 1.224 2.53c.459 0 .913-.2 1.221-.584a1.563 1.563 0 0 0-.212-2.19zM20.01 43.442a1.562 1.562 0 0 0-3.075.55l.003.016a1.554 1.554 0 0 0 1.812 1.255 1.569 1.569 0 0 0 1.26-1.821zM45.364 31.582a7.235 7.235 0 0 0-5.26 2.254 7.235 7.235 0 0 0-5.261-2.254c-4 0-7.255 3.254-7.255 7.255a7.239 7.239 0 0 0 2.642 5.599l8.903 7.048a1.56 1.56 0 0 0 1.944-.002l9.28-7.393c.046-.036.089-.075.13-.115a7.206 7.206 0 0 0 2.132-5.137c0-4-3.255-7.255-7.255-7.255zm2.973 10.122-8.237 6.56L32.188 42a4.122 4.122 0 0 1-1.474-3.162 4.135 4.135 0 0 1 4.13-4.13 4.12 4.12 0 0 1 3.817 2.55 1.563 1.563 0 0 0 2.887 0 4.12 4.12 0 0 1 3.817-2.55 4.135 4.135 0 0 1 4.13 4.13c0 1.078-.41 2.093-1.157 2.867zM1.563 64.488a1.557 1.557 0 1 0 0-3.114 1.557 1.557 0 0 0 0 3.114zM78.438 18.626a1.557 1.557 0 1 0 0-3.114 1.557 1.557 0 0 0 0 3.114z" fill="#333"/></svg>
